!!!OTL: Die Schwestern.
!!!OTL-incipit:SCHWAENE KOMMEN GEZOGEN
!!!COM: C. Blum
!!!ARE: Europa, Mitteleuropa, Deutschland
!!!SCT: F0313
!!!TXL: @@DE
!!!YEM: Copyright 1995, estate of Helmut Schaffrath.
**kern	**text
*ICvox	*
*M6/8	*
*k[b-]	*
*F:	*
=1	=1
!LO:TX:a:t=Erst Stimme.	!
!LO:TX:a:t=In heiter Bewegung.	!
!LO:TX:a:t=Sopran-Duett.	!
{[4.a	1._Schwä-
4a]	.
8a	-ne
=2	=2
(4a	kom-
16b-L	.
16aJ)	.
(>4g	-men
8a)	ge-
=3	=3
[4.cc	-zo-
(4cc]	.
8bn)	.
=4	=4
4.b-	-gen
4r	.
8r}	.
=5	=5
{(>4.a	durch
4cc)	.
8cc	die
=6	=6
(4bn	blau-
8ff	.
4ee)	.
8dd	-e
=7	=7
4.cc	Fluth,
4r	.
8r}	.
=8	=8
!LO:TX:a:t=Zweite Stimme.	!
{4.a	und
4a	die
8a	er-
=9	=9
(4a	-glän-
16b-L	.
16aJ)	.
4g	-zen-
8a	-den
=10	=10
(4cc	Wo-
8b-)	.
4b-	-gen
8r}	.
=11	=11
{4.a	wal-
4g	-len
8f	in
=12	=12
(4a	schau-
8g)	.
4f	-men-
8e	-der
=13	=13
4.f	Gluth.
4.r}	.
=14	=14
!LO:TX:a:t=Beide Stimmen.	!
{8cc	1-4._Laß
8cc	un-
8cc	-sre
8cc#	Ci-
8cc#	-ther
8cc#	er-
=15	=15
4.dd	-kling-
4dd}	-gen
{8ff	beim
=16	=16
(8.ffL	Schlummer
16eeJ)	.
8dd	.
(8ddL	der
8ccJ)	.
8bn	Ro-
=17	=17
4.cc	-tur;
4r	.
8r}	.
=18	=18
{8dd	laß
8ee	un-
8ff	-sre
8ff	Lie-
8dd	-der
8b-	uns
=19	=19
(4a	sin-
8cc)	.
4cc}	-gen,
{8ee	bis
=20	=20
4.ff	Hes-
4cc	-pe-
8a	-rus
=21	=21
[4.cc	grü-
8cc]	.
8c	-ßet
8c	die
=22	=22
4.f	Flur.
4r	.
8r}	.
==	==
!!!AGN: Jugend - Lied, Natur; Schwestern - Liebe
!!!ONB: ESAC (Essen Associative Code) Database: FINK
!!!AMT: compound duple
!!!AIN: vox
!!!EED: Helmut Schaffrath
!!!EEV: 1.0
!!Text: Miller
!!!source: Musikalischer Hausschatz der Deutschen. Eine Sammlung von über 1000 Liedern und Gesängen mit Singstimmen und Klavierbegleitung. Leipzig, Litterarisches Verlags-Haus.
!!!page: 188
!!!ENC: Anna Maria Matuszewska
!!!EEV: 2025/03/13
*-	*-
